X: 24893
T: Magpie's Nest, The
R: reel
M: 4/4
K: Dmajor
B|A2BA BAFA|dBAF GFED|FAAF AFDE|FAde fddB|
A2BA BAFA|dBAF GFED|FAAF AFDE|FAde fdd:|
e|f2af efde|fddc dcBA|fa~a2 bafd|ABde fdde|
f2af efde|fddc dcBA|F2AF G2BG|ABde fdd:|

